carriers/mondialRelay.svg

<svg width="128" height="64" viewBox="0 0 128 64" fill="none" xmlns="http://www.w3.org/2000/svg">
<rect width="128" height="64" rx="6" fill="white"/>
<path d="M6.00171 45.3108C6.04673 46.5735 6.50397 47.7876 7.30477 48.7709C8.10557 49.7542 9.20671 50.4536 10.4429 50.764C12.101 51.1696 20.6497 52.0932 25.7066 52.0932C30.7635 52.0932 39.3156 51.1696 40.9737 50.764C42.2099 50.4536 43.311 49.7542 44.1118 48.7709C44.9126 47.7876 45.3699 46.5735 45.4148 45.3108V18.6858C45.3693 17.4233 44.9118 16.2095 44.1112 15.2263C43.3104 14.2431 42.2096 13.5436 40.9737 13.2327C39.3156 12.8271 30.767 11.9069 25.7066 11.9069C20.6462 11.9069 12.101 12.8271 10.4429 13.2327C9.20699 13.5436 8.10615 14.2431 7.30544 15.2263C6.50473 16.2095 6.04728 17.4233 6.00171 18.6858V45.3108Z" fill="#96154A"/>
<path d="M28.7407 31.3133C25.3556 30.7169 23.0989 32.513 23.0989 35.427V42.0935L17.7771 45.4711V35.427C17.7771 29.599 21.8502 25.5432 28.7407 26.3646V31.3133Z" fill="white"/>
<path d="M26.9451 21.242C26.9451 21.8406 26.7659 22.4258 26.4303 22.9235C26.0946 23.4212 25.6175 23.8092 25.0593 24.0382C24.5011 24.2673 23.8869 24.3272 23.2943 24.2104C22.7017 24.0936 22.1574 23.8054 21.7302 23.3821C21.303 22.9588 21.012 22.4196 20.8941 21.8325C20.7763 21.2454 20.8367 20.637 21.068 20.0839C21.2992 19.5309 21.6907 19.0582 22.1931 18.7257C22.6955 18.3931 23.286 18.2156 23.8903 18.2156C24.7004 18.2156 25.4774 18.5345 26.0503 19.102C26.6232 19.6696 26.9451 20.4394 26.9451 21.242Z" fill="white"/>
<path d="M30.0137 30.9111C30.0216 31.0954 30.0891 31.2724 30.2061 31.416C30.3231 31.5595 30.4836 31.6621 30.6638 31.7086C31.4014 31.8248 32.1463 31.8898 32.893 31.9029C33.6409 31.8899 34.3869 31.825 35.1256 31.7086C35.3059 31.6621 35.4663 31.5595 35.5834 31.416C35.7004 31.2724 35.7678 31.0954 35.7758 30.9111V27.0189C35.7682 26.8348 35.7008 26.6581 35.5836 26.515C35.4665 26.3719 35.3059 26.2702 35.1256 26.2248C34.3869 26.1085 33.6409 26.0435 32.893 26.0305C32.1463 26.0437 31.4014 26.1086 30.6638 26.2248C30.4836 26.2702 30.3229 26.3719 30.2058 26.515C30.0886 26.6581 30.0213 26.8348 30.0137 27.0189V30.9111Z" fill="#F6ABB6"/>
<path d="M86.6856 22.6257C87.406 23.3074 87.7662 24.3299 87.7662 25.6931V31.0509H85.5676V25.9726C85.6138 25.3043 85.4007 24.6437 84.9727 24.1253C84.7556 23.9114 84.4951 23.7455 84.2089 23.6385C83.9226 23.5316 83.6167 23.4861 83.3114 23.505C82.9573 23.4864 82.6032 23.5413 82.2721 23.6663C81.9411 23.7913 81.6399 23.9837 81.3882 24.231C80.8822 24.8086 80.6278 25.5608 80.6793 26.3236V31.0509H78.4814V21.7021H80.5728V22.9086C80.9425 22.4749 81.4154 22.1388 81.9486 21.9304C82.5448 21.6982 83.1798 21.5824 83.8202 21.5896C84.3418 21.5634 84.8635 21.6402 85.3553 21.8157C85.8464 21.9913 86.2975 22.262 86.6822 22.6121" fill="#96154A"/>
<path d="M72.5262 31.2588C71.5474 31.2737 70.5863 30.9998 69.7652 30.4718C68.944 29.9439 68.3 29.1859 67.9149 28.2943C67.53 27.4027 67.4213 26.4177 67.6031 25.4647C67.7848 24.5118 68.2485 23.634 68.9354 22.9429C69.6222 22.2519 70.5009 21.7789 71.4598 21.5841C72.4188 21.3895 73.4145 21.4817 74.3202 21.8493C75.2265 22.2169 76.0011 22.8433 76.5466 23.6485C77.092 24.4538 77.3836 25.4016 77.3836 26.3714C77.3925 27.6575 76.8864 28.8945 75.9754 29.8109C75.065 30.7273 73.8241 31.248 72.5262 31.2588ZM72.5915 23.696C72.0457 23.6892 71.5103 23.8434 71.0532 24.1389C70.5962 24.4343 70.2381 24.8577 70.0245 25.3553C69.8109 25.8529 69.7515 26.4022 69.8538 26.9332C69.956 27.4644 70.2154 27.9534 70.5989 28.3381C70.9823 28.7229 71.4727 28.986 72.0074 29.094C72.5422 29.202 73.0973 29.15 73.6022 28.9447C74.1072 28.7393 74.5386 28.39 74.8432 27.9408C75.1471 27.4917 75.3092 26.9632 75.3092 26.4225C75.3092 25.7053 75.0243 25.0169 74.5155 24.5065C74.0068 23.9961 73.3154 23.7049 72.5915 23.696Z" fill="#96154A"/>
<path d="M93.9853 45.27V35.9213H91.8803V36.8074C91.1606 36.2562 90.2997 35.9158 89.3948 35.8249C88.4898 35.734 87.5775 35.8962 86.7614 36.2932C85.9446 36.6902 85.2568 37.3059 84.7758 38.0707C84.2949 38.8354 84.0398 39.7184 84.0398 40.6195C84.0398 41.5205 84.2949 42.4036 84.7758 43.1683C85.2568 43.933 85.9446 44.5488 86.7614 44.9458C87.5775 45.3428 88.4898 45.505 89.3948 45.4141C90.2997 45.3232 91.1606 44.9828 91.8803 44.4316V45.27H93.9853ZM88.9111 43.4909C88.3379 43.4909 87.7769 43.3224 87.3 43.0067C86.8231 42.691 86.4514 42.2423 86.2323 41.7173C86.0125 41.1923 85.9555 40.6147 86.0674 40.0573C86.1787 39.5 86.4554 38.988 86.8604 38.5862C87.2661 38.1844 87.783 37.9108 88.3454 37.7999C88.9084 37.689 89.4911 37.7459 90.0209 37.9633C90.5507 38.1808 91.0039 38.549 91.3227 39.0215C91.6415 39.4941 91.8111 40.0495 91.8111 40.6178C91.8104 41.3795 91.5045 42.1098 90.9611 42.6484C90.4171 43.187 89.6804 43.49 88.9111 43.4909Z" fill="#96154A"/>
<path d="M111.843 21.6953V22.6326C111.123 22.0813 110.263 21.741 109.358 21.6501C108.453 21.5592 107.54 21.7214 106.724 22.1184C105.908 22.5154 105.22 23.1312 104.739 23.8959C104.258 24.6606 104.003 25.5437 104.003 26.4447C104.003 27.3457 104.258 28.2288 104.739 28.9935C105.22 29.7582 105.908 30.374 106.724 30.771C107.54 31.168 108.453 31.3302 109.358 31.2393C110.263 31.1484 111.123 30.808 111.843 30.2568V31.0475H113.948V21.6953H111.843ZM108.874 29.3161C108.301 29.3168 107.74 29.1489 107.262 28.8336C106.785 28.5183 106.413 28.0698 106.192 27.5448C105.973 27.0199 105.914 26.4422 106.026 25.8846C106.137 25.327 106.414 24.8148 106.819 24.4126C107.224 24.0104 107.741 23.7364 108.303 23.6253C108.867 23.5141 109.45 23.5709 109.98 23.7882C110.51 24.0056 110.963 24.3739 111.282 24.8465C111.6 25.319 111.771 25.8746 111.771 26.443C111.77 27.2041 111.465 27.9339 110.922 28.4724C110.379 29.0109 109.643 29.3143 108.874 29.3161Z" fill="#96154A"/>
<path d="M73.2899 43.4636C72.7224 43.5842 72.1319 43.5425 71.5874 43.3434C71.0429 43.1442 70.5667 42.7958 70.2144 42.3388L70.3245 42.3048L77.5248 39.919C77.3504 38.9735 76.9373 38.0871 76.3241 37.3424C75.8051 36.7103 75.1152 36.2374 74.3358 35.9791C73.5036 35.7188 72.6216 35.6549 71.7602 35.7928C70.8988 35.9308 70.082 36.2665 69.3751 36.7732C68.7047 37.2727 68.1887 37.948 67.8855 38.7228C67.5711 39.5272 67.4808 40.4007 67.624 41.2516C67.691 41.7082 67.8217 42.1532 68.0128 42.574C68.8866 44.578 71.126 45.73 73.4447 45.379L73.6717 45.3415C74.4972 45.1932 75.2706 44.836 75.9164 44.3045C76.5615 43.7731 77.0581 43.0854 77.3559 42.3082L75.5813 41.6266C75.3832 42.0956 75.0698 42.5081 74.6695 42.826C74.2693 43.1441 73.795 43.3574 73.2899 43.4465V43.4636ZM69.7672 40.8392C69.6889 40.4602 69.6872 40.0696 69.7622 39.69C69.8372 39.3103 69.9874 38.9491 70.2041 38.6273C70.423 38.3284 70.7026 38.0782 71.0248 37.8927C71.3471 37.7072 71.705 37.5906 72.0755 37.5503C72.6844 37.4407 73.3127 37.5316 73.8643 37.8093C74.3779 38.0752 74.7822 38.5087 75.0101 39.0363L69.7707 40.8392H69.7672Z" fill="#96154A"/>
<path d="M78.4814 41.7186C78.4896 42.4298 78.7006 43.1241 79.0899 43.7216C79.4793 44.3191 80.0308 44.7956 80.6814 45.0962C81.3326 45.3967 82.0551 45.5092 82.7673 45.4206C83.4796 45.3319 84.1526 45.0458 84.7075 44.5952L83.3317 42.9115C83.04 43.1466 82.6758 43.2743 82.3 43.2728C81.8787 43.2773 81.473 43.1162 81.1718 42.8248C80.8706 42.5335 80.6983 42.1356 80.6929 41.7186V32.4517H78.495L78.4814 41.7186Z" fill="#96154A"/>
<path d="M120.608 28.631C120.318 28.8675 119.952 28.9953 119.577 28.9923C119.368 28.995 119.161 28.9569 118.967 28.8802C118.773 28.8035 118.597 28.6897 118.448 28.5454C118.299 28.401 118.18 28.2289 118.098 28.0389C118.016 27.8489 117.972 27.6448 117.97 27.4381V18.4473L115.772 19.8446V27.4381C115.781 28.1493 115.992 28.8436 116.381 29.4411C116.77 30.0387 117.322 30.5152 117.972 30.8158C118.623 31.1163 119.346 31.2288 120.058 31.1401C120.771 31.0514 121.443 30.7653 121.998 30.3147L120.608 28.631Z" fill="#96154A"/>
<path d="M64.263 31.0339H66.5713V19.313C66.5699 19.0807 66.4944 18.8549 66.3557 18.6677C66.2169 18.4805 66.0218 18.3416 65.7985 18.2709C65.5752 18.2002 65.3351 18.2012 65.1124 18.2739C64.8897 18.3466 64.696 18.4873 64.5589 18.6757L61.1188 23.4472L57.6787 18.6757C57.5421 18.4863 57.3484 18.3448 57.1253 18.2717C56.9023 18.1986 56.6616 18.1977 56.4379 18.269C56.2143 18.3403 56.0194 18.4802 55.8813 18.6685C55.7432 18.8568 55.6691 19.0837 55.6697 19.3164V31.0372H57.9779V23.287L58.1224 23.4608C59.01 24.5617 60.362 26.2214 60.4376 26.2931C60.6234 26.4681 60.8693 26.5668 61.1257 26.5691C61.3816 26.5648 61.6269 26.4664 61.8137 26.2931C61.8859 26.2214 63.2379 24.5617 64.1289 23.4608L64.2699 23.287L64.263 31.0339Z" fill="#96154A"/>
<path d="M102.912 22.3121H100.715V31.0474H102.912V22.3121Z" fill="#96154A"/>
<path d="M103.198 19.6129C103.198 19.3433 103.117 19.0797 102.966 18.8555C102.815 18.6313 102.6 18.4566 102.349 18.3534C102.097 18.2502 101.82 18.2232 101.554 18.2758C101.286 18.3284 101.042 18.4583 100.849 18.6489C100.656 18.8396 100.525 19.0825 100.472 19.347C100.419 19.6114 100.447 19.8855 100.55 20.1346C100.655 20.3837 100.831 20.5967 101.058 20.7464C101.284 20.8962 101.55 20.9762 101.822 20.9762C102.187 20.9762 102.537 20.8326 102.795 20.5769C103.053 20.3212 103.198 19.9745 103.198 19.6129Z" fill="#96154A"/>
<path d="M103.202 35.9348V40.4984C103.202 42.0423 102.09 43.225 100.614 43.225C99.1389 43.225 98.0277 42.0594 98.0277 40.4984V35.9451H95.8257V40.4984C95.8101 41.1324 95.9227 41.7631 96.1561 42.3537C96.3894 42.9442 96.7388 43.4828 97.1852 43.9379C97.6309 44.3929 98.164 44.7553 98.7529 45.0039C99.3417 45.2525 99.9746 45.3824 100.614 45.3858C101.543 45.3885 102.448 45.1011 103.202 44.5645V45.7505C103.202 48.1363 101.272 49.9767 98.7291 49.9767C95.6812 49.9767 94.2261 48.2725 93.9996 46.6979H91.8804C92.1517 49.8505 94.9554 52.0897 98.7156 52.0897C100.452 52.1094 102.132 51.4775 103.418 50.3209C104.052 49.7375 104.555 49.0298 104.897 48.2429C105.239 47.456 105.411 46.6072 105.404 45.7505V35.9451L103.202 35.9348Z" fill="#96154A"/>
<path d="M96.696 18.3826V22.6326C95.977 22.0814 95.1161 21.741 94.2112 21.6501C93.3063 21.5592 92.3939 21.7214 91.5771 22.1184C90.761 22.5154 90.0732 23.1312 89.5922 23.8959C89.1113 24.6606 88.8562 25.5437 88.8562 26.4447C88.8562 27.3458 89.1113 28.2288 89.5922 28.9935C90.0732 29.7583 90.761 30.374 91.5771 30.771C92.3939 31.168 93.3063 31.3302 94.2112 31.2393C95.1161 31.1485 95.977 30.808 96.696 30.2568V31.0475H98.8844V18.3826H96.696ZM93.7275 29.3161C93.1543 29.3161 92.5933 29.1476 92.1164 28.832C91.6395 28.5163 91.2678 28.0675 91.048 27.5425C90.8289 27.0175 90.7712 26.4398 90.8831 25.8825C90.9951 25.3252 91.2712 24.8132 91.6768 24.4114C92.0825 24.0096 92.5994 23.736 93.1618 23.6251C93.7241 23.5142 94.3075 23.5711 94.8373 23.7886C95.3671 24.006 95.8203 24.3743 96.1391 24.8468C96.4573 25.3193 96.6275 25.8748 96.6275 26.443C96.6268 27.2048 96.3209 27.935 95.7769 28.4737C95.2335 29.0123 94.4961 29.3152 93.7275 29.3161Z" fill="#96154A"/>
<path d="M64.8617 45.27H67.7307L64.497 40.7336L64.5692 40.6894C65.1698 40.3522 65.679 39.876 66.0534 39.3015C66.4279 38.7269 66.6564 38.0711 66.7193 37.3901C66.7748 36.7652 66.7012 36.1355 66.5031 35.5396C66.3049 34.9437 65.9864 34.394 65.5669 33.924C65.1529 33.4628 64.6454 33.0934 64.0776 32.8397C63.5097 32.586 62.8942 32.4538 62.2713 32.4517H58.2395C57.5436 32.4606 56.8797 32.7427 56.3935 33.2359C55.9072 33.7292 55.6383 34.3933 55.6457 35.0828V45.27H57.9574V41.3642H62.0855L64.8617 45.27ZM58.0365 39.0636H57.9574V35.4918C57.9555 35.2954 58.0323 35.1061 58.171 34.9656C58.3096 34.825 58.4987 34.7447 58.697 34.7419H62.1921C62.764 34.7229 63.3205 34.9268 63.7422 35.3099C64.1639 35.693 64.417 36.2247 64.4472 36.7908C64.4774 37.3568 64.2822 37.912 63.9036 38.337C63.525 38.762 62.9933 39.0229 62.4226 39.0636H58.0365Z" fill="#96154A"/>
</svg>

<svg xmlns="http://www.w3.org/2000/svg" width="128" height="64" fill="none"><rect width="128" height="64" fill="#fff" rx="6"/><path fill="#96154A" d="M6.002 45.31a5.806 5.806 0 0 0 1.303 3.46 5.898 5.898 0 0 0 3.138 1.994c1.658.406 10.207 1.33 15.264 1.33 5.056 0 13.609-.924 15.267-1.33a5.898 5.898 0 0 0 3.138-1.993 5.805 5.805 0 0 0 1.303-3.46V18.686a5.81 5.81 0 0 0-1.304-3.46 5.902 5.902 0 0 0-3.137-1.993c-1.658-.406-10.207-1.326-15.267-1.326-5.06 0-13.606.92-15.264 1.326a5.902 5.902 0 0 0-3.138 1.993 5.81 5.81 0 0 0-1.303 3.46V45.31Z"/><path fill="#fff" d="M28.74 31.313c-3.384-.596-5.641 1.2-5.641 4.114v6.666l-5.322 3.378V35.427c0-5.828 4.073-9.884 10.964-9.062v4.948ZM26.945 21.242c0 .599-.18 1.184-.515 1.681a3.049 3.049 0 0 1-1.37 1.115 3.08 3.08 0 0 1-3.33-.656 3 3 0 0 1-.662-3.298 3.032 3.032 0 0 1 1.125-1.358 3.075 3.075 0 0 1 3.857.376c.573.568.895 1.337.895 2.14Z"/><path fill="#F6ABB6" d="M30.014 30.911a.858.858 0 0 0 .192.505.871.871 0 0 0 .458.293c.737.116 1.482.18 2.229.194a16.146 16.146 0 0 0 2.233-.194c.18-.047.34-.15.457-.293a.858.858 0 0 0 .193-.505V27.02a.85.85 0 0 0-.192-.504.864.864 0 0 0-.458-.29 16.162 16.162 0 0 0-2.233-.195 16.16 16.16 0 0 0-2.23.195.864.864 0 0 0-.457.29.85.85 0 0 0-.192.504v3.892Z"/><path fill="#96154A" d="M86.686 22.626c.72.681 1.08 1.704 1.08 3.067v5.358h-2.198v-5.078a2.618 2.618 0 0 0-.595-1.848 2.172 2.172 0 0 0-1.662-.62 2.563 2.563 0 0 0-1.923.726 2.88 2.88 0 0 0-.709 2.093v4.727h-2.198v-9.349h2.092v1.207c.37-.434.842-.77 1.376-.979a5 5 0 0 1 1.871-.34 3.944 3.944 0 0 1 2.862 1.023M72.526 31.259a4.966 4.966 0 0 1-2.76-.787 4.9 4.9 0 0 1-1.851-2.178 4.846 4.846 0 0 1-.312-2.83 4.872 4.872 0 0 1 1.332-2.521 4.947 4.947 0 0 1 2.525-1.359 4.977 4.977 0 0 1 2.86.265c.907.368 1.681.994 2.227 1.8.545.805.837 1.753.837 2.722a4.83 4.83 0 0 1-1.409 3.44 4.92 4.92 0 0 1-3.449 1.448Zm.066-7.563a2.77 2.77 0 0 0-1.539.443 2.733 2.733 0 0 0-1.028 1.216 2.703 2.703 0 0 0 .574 2.983 2.776 2.776 0 0 0 3.003.607 2.75 2.75 0 0 0 1.241-1.004 2.709 2.709 0 0 0-.328-3.434 2.765 2.765 0 0 0-1.924-.811ZM93.985 45.27v-9.349H91.88v.886a4.902 4.902 0 0 0-5.119-.514 4.847 4.847 0 0 0-1.985 1.778 4.787 4.787 0 0 0 0 5.097 4.848 4.848 0 0 0 1.985 1.778 4.902 4.902 0 0 0 5.12-.514v.838h2.104Zm-5.074-1.78a2.92 2.92 0 0 1-1.611-.483 2.876 2.876 0 0 1-1.068-1.29 2.846 2.846 0 0 1-.165-1.66c.112-.557.388-1.069.793-1.47a2.925 2.925 0 0 1 3.16-.623c.53.217.984.585 1.303 1.058a2.853 2.853 0 0 1-.362 3.626 2.918 2.918 0 0 1-2.05.843ZM111.843 21.695v.938a4.903 4.903 0 0 0-5.119-.514 4.851 4.851 0 0 0-1.985 1.777 4.786 4.786 0 0 0 0 5.098 4.851 4.851 0 0 0 1.985 1.777 4.903 4.903 0 0 0 5.119-.514v.79h2.105v-9.352h-2.105Zm-2.969 7.621a2.922 2.922 0 0 1-1.612-.482 2.888 2.888 0 0 1-1.07-1.29 2.852 2.852 0 0 1 .627-3.131 2.906 2.906 0 0 1 1.484-.788 2.927 2.927 0 0 1 1.677.163c.53.218.983.586 1.302 1.058a2.86 2.86 0 0 1 .489 1.597 2.863 2.863 0 0 1-.849 2.03 2.918 2.918 0 0 1-2.048.843ZM73.29 43.464a3.09 3.09 0 0 1-1.703-.12 3.06 3.06 0 0 1-1.373-1.005l.11-.034 7.2-2.386a5.672 5.672 0 0 0-1.2-2.577 4.338 4.338 0 0 0-1.988-1.363 5.642 5.642 0 0 0-4.96.794 4.459 4.459 0 0 0-1.49 1.95 4.77 4.77 0 0 0-.262 2.529c.067.456.198.901.389 1.322.874 2.004 3.113 3.156 5.432 2.805l.227-.037a4.895 4.895 0 0 0 2.244-1.038 4.825 4.825 0 0 0 1.44-1.996l-1.775-.681a3.045 3.045 0 0 1-.912 1.199c-.4.318-.874.531-1.38.62v.018Zm-3.523-2.625a2.9 2.9 0 0 1 .437-2.212 2.665 2.665 0 0 1 1.872-1.077 2.855 2.855 0 0 1 1.788.26c.514.265.918.699 1.146 1.226l-5.24 1.803h-.003ZM78.481 41.719c.009.71.22 1.405.609 2.003.39.597.94 1.074 1.591 1.374a3.845 3.845 0 0 0 4.026-.5l-1.375-1.684a1.633 1.633 0 0 1-1.032.36 1.598 1.598 0 0 1-1.128-.447 1.567 1.567 0 0 1-.48-1.106v-9.267h-2.197l-.014 9.267ZM120.608 28.631c-.29.236-.656.364-1.031.361a1.602 1.602 0 0 1-1.129-.447 1.574 1.574 0 0 1-.478-1.107v-8.99l-2.198 1.397v7.593c.009.711.22 1.406.609 2.003a3.801 3.801 0 0 0 1.591 1.375 3.845 3.845 0 0 0 4.026-.501l-1.39-1.684ZM64.263 31.034h2.308V19.313a1.095 1.095 0 0 0-.215-.645 1.11 1.11 0 0 0-1.244-.394 1.11 1.11 0 0 0-.553.402l-3.44 4.771-3.44-4.771a1.107 1.107 0 0 0-1.241-.407 1.107 1.107 0 0 0-.557.4 1.09 1.09 0 0 0-.211.647v11.721h2.308v-7.75l.144.174c.888 1.1 2.24 2.76 2.316 2.832.185.175.431.274.688.276.256-.004.5-.103.688-.276.072-.072 1.424-1.731 2.315-2.832l.14-.174-.006 7.747ZM102.912 22.312h-2.197v8.735h2.197v-8.735ZM103.198 19.613c0-.27-.081-.533-.232-.758a1.373 1.373 0 0 0-1.412-.58 1.38 1.38 0 0 0-.705.374 1.356 1.356 0 0 0 .209 2.097 1.383 1.383 0 0 0 1.737-.17c.258-.255.403-.602.403-.963Z"/><path fill="#96154A" d="M103.202 35.935v4.563c0 1.544-1.112 2.727-2.588 2.727-1.475 0-2.586-1.166-2.586-2.727v-4.553h-2.202v4.553a4.76 4.76 0 0 0 1.36 3.44c.445.455.978.817 1.567 1.066a4.853 4.853 0 0 0 1.861.382 4.44 4.44 0 0 0 2.588-.822v1.187c0 2.385-1.93 4.226-4.473 4.226-3.048 0-4.503-1.704-4.73-3.28H91.88c.272 3.153 3.075 5.393 6.836 5.393a6.916 6.916 0 0 0 4.702-1.77 6.125 6.125 0 0 0 1.986-4.57v-9.805l-2.202-.01ZM96.696 18.383v4.25a4.905 4.905 0 0 0-5.119-.514 4.85 4.85 0 0 0-1.985 1.777 4.787 4.787 0 0 0 0 5.098 4.85 4.85 0 0 0 1.985 1.777 4.905 4.905 0 0 0 5.119-.514v.79h2.188V18.383h-2.188Zm-2.968 10.933a2.92 2.92 0 0 1-1.612-.484 2.882 2.882 0 0 1-1.068-1.29 2.852 2.852 0 0 1 .629-3.13 2.925 2.925 0 0 1 3.16-.623c.53.217.983.585 1.302 1.058.318.472.489 1.028.489 1.596-.001.762-.307 1.492-.851 2.03a2.917 2.917 0 0 1-2.05.843ZM64.862 45.27h2.869l-3.234-4.536.072-.045a4.26 4.26 0 0 0 1.484-1.388 4.21 4.21 0 0 0 .666-1.91 4.58 4.58 0 0 0-1.152-3.467 4.428 4.428 0 0 0-1.49-1.084 4.466 4.466 0 0 0-1.806-.388H58.24a2.64 2.64 0 0 0-1.845.784 2.59 2.59 0 0 0-.748 1.847V45.27h2.311v-3.906h4.129l2.776 3.906Zm-6.825-6.206h-.08v-3.572a.739.739 0 0 1 .214-.526.753.753 0 0 1 .526-.224h3.495a2.197 2.197 0 0 1 1.55.568 2.152 2.152 0 0 1 .161 3.027c-.378.425-.91.686-1.48.727h-4.387Z"/></svg>
